build/flags/KoreaNorth.svg

<svg xmlns="http://www.w3.org/2000/svg" fill="none" viewBox="0 0 28 28" focusable="false"><defs><filter id="Korea_North_svg__a"><feColorMatrix values="0 0 0 0 1 0 0 0 0 1 0 0 0 0 1 0 0 0 1 0"/></filter></defs><mask id="Korea_North_svg__b" width="28" height="20" x="0" y="4" maskUnits="userSpaceOnUse"><g filter="url(#Korea_North_svg__a)"><rect width="28" height="20" y="4" fill="#FFF" rx="3"/><rect width="28" height="20" y="4" stroke="#969696" stroke-opacity="0" stroke-width="0" rx="3"/></g></mask><path fill="none" d="M0 0H28V28H0z"/><rect width="28" height="20" y="4" fill="#FFF" rx="3"/><rect width="28" height="20" y="4" rx="3"/><g mask="url(#Korea_North_svg__b)"><path fill="#1461B6" fill-rule="evenodd" d="M0 8L28 8L28 4L0 4L0 8Z"/><path d="M28 8L28 4L0 4L0 8L28 8Z"/><path fill="#1461B6" fill-rule="evenodd" d="M0 24L28 24L28 20L0 20L0 24Z"/><path d="M28 24L28 20L0 20L0 24L28 24Z"/><path fill="#FFF" fill-rule="evenodd" d="M0 20L28 20L28 8L0 8L0 20Z"/><path d="M28 20L28 8L0 8L0 20L28 20Z"/><path fill="#F53846" fill-rule="evenodd" d="M0 18.6666L28 18.6666L28 9.33331L0 9.33331L0 18.6666Z"/><path d="M28 18.6666L28 9.33331L0 9.33331L0 18.6666L28 18.6666Z"/><path fill="#FFF" fill-rule="evenodd" d="M13.3333 14C13.3333 15.841 11.8409 17.3334 9.99999 17.3334C8.15904 17.3334 6.66666 15.841 6.66666 14C6.66666 12.1591 8.15904 10.6667 9.99999 10.6667L9.21378 12.9179L6.8298 12.97L8.72788 14.4134L8.04071 16.6967L9.99999 15.3376L11.9593 16.6967L11.2721 14.4134L13.1702 12.97L10.7862 12.9179L9.99999 10.6667C11.8409 10.6667 13.3333 12.1591 13.3333 14Z"/><path d="M13.3333 14C13.3333 15.841 11.8409 17.3334 9.99999 17.3334C8.15904 17.3334 6.66666 15.841 6.66666 14C6.66666 12.1591 8.15904 10.6667 9.99999 10.6667L9.21378 12.9179L6.8298 12.97L8.72788 14.4134L8.04071 16.6967L9.99999 15.3376L11.9593 16.6967L11.2721 14.4134L13.1702 12.97L10.7862 12.9179L9.99999 10.6667C11.8409 10.6667 13.3333 12.1591 13.3333 14Z"/></g></svg>

<svg xmlns="http://www.w3.org/2000/svg" fill="none" viewBox="0 0 28 28" focusable="false"><path fill="none" d="M0 0h28v28H0z"/><rect width="28" height="20" y="4" fill="#FFF" rx="3"/><rect width="28" height="20" y="4" rx="3"/><mask id="Korea_North_svg__a" width="28" height="20" x="0" y="4" mask-type="alpha" maskUnits="userSpaceOnUse"><rect width="28" height="20" y="4" fill="#FFF" rx="3"/><rect width="28" height="20" y="4" stroke="#979797" stroke-opacity="0" stroke-width="0" rx="3"/></mask><g mask="url(#Korea_North_svg__a)"><path fill="#1461B6" fill-rule="evenodd" d="M0 8h28V4H0z"/><path d="M28 8V4H0v4z"/></g><g mask="url(#Korea_North_svg__a)"><path fill="#1461B6" fill-rule="evenodd" d="M0 24h28v-4H0z"/><path d="M28 24v-4H0v4z"/></g><g mask="url(#Korea_North_svg__a)"><path fill="#FFF" fill-rule="evenodd" d="M0 20h28V8H0z"/><path d="M28 20V8H0v12z"/></g><g mask="url(#Korea_North_svg__a)"><path fill="#F53846" fill-rule="evenodd" d="M0 18.66h28V9.33H0z"/><path d="M28 18.66V9.33H0v9.33z"/></g><g mask="url(#Korea_North_svg__a)"><mask id="Korea_North_svg__b" fill="#fff"><path fill-rule="evenodd" d="M13.333 14A3.333 3.333 0 1 1 10 10.667l-.786 2.25-2.384.053 1.898 1.443-.687 2.284L10 15.337l1.96 1.36-.688-2.284 1.898-1.443-2.384-.052L10 10.667A3.333 3.333 0 0 1 13.333 14" clip-rule="evenodd"/></mask><path fill="#FFF" fill-rule="evenodd" d="M13.333 14A3.333 3.333 0 1 1 10 10.667l-.786 2.25-2.384.053 1.898 1.443-.687 2.284L10 15.337l1.96 1.36-.688-2.284 1.898-1.443-2.384-.052L10 10.667A3.333 3.333 0 0 1 13.333 14" clip-rule="evenodd" mask="url(#Korea_North_svg__b)"/></g></svg>
